X:543
T:I Would Have Preferred Thee At First, But Not Now, Sir
T:'Nuair clmnic mi'n ts thu, dheaninn do phsadh
S:Gunn Coll via Niall Anderson, Glasgow,
Z:Nigel Gatherer
M:6/8
L:1/8
K:D
e | AAA c2e | efe c2e | AAA c2e | gdB B<Be |
    AAA c2e | efe c2A | dBB g2B | cAA AA  :|
e | aga c2e | AAe c2e | aga c2e | gdB B<Be |
    aga c2e | AAe c2A | dBB g2B | cAA AA  :|
